X:2

T:Whitehaven Volunteers

M:2/4

L:1/8

S:John Rook music manuscript (Cumbria)

K:G

d/c/|BB B/c/A/B/|GGGD|GBdB|e/d/c/B/ Ad/c/|BB B/c/A/B/|

GGGD|EcAF|G2 G::d|Bd de/f/|gd d/e/d/c/|Bdd c/B/|

A/G/A/B/ Ac|Bdd e/f/|g/f/g/a/ gd|BG c/B/A/G/|G2 G:|

 

WHITE'S DAUGHTER FROM THE GLEN. AKA ‑ "Inghin/Inion an Fhaoit On N‑Gleann". Irish, Slow Air (4/4 time). G Major. Standard tuning. One part (Ó Canainn): AAB (Joyce). Cowdery (1990) identifies this melody as "a kind of outlining correspondent of the first strain of 'The Blackbird,' although the overall form is not the same." He analyzes the tune and its tune family in his work "The Melodic Tradition of Ireland."  Source for notated version: James O'Farrell of Cootehill, Co. Cavan (Joyce). Joyce (Old Irish Folk Music and Songs), 1909; No. 807, pg. 392. Ó Canainn (Traditional Slow Airs of Ireland), 1995; No. 36, pg. 35. Dolphin DOL 1008, Tomas Ó Canainn - "A Kindly Welcome" (1974).

 

WHITE’S SNOWDEN.  See “White Snowdon.”

 

WHITESBURG. Old-Time, Breakdown. A Major/Mixolydian. Standard tuning. ABB'. The 'G' notes may be either sharp or natural. Kentucky fiddler Santford Kelly recorded a tune called “Whitesbury of Old Kentucky,” later recorded by bluegrass musician Ricky Scaggs on a Rebel LP as “Whitesburg.” Source for notated version: Evan Stover (NY) with Fiddle Fever [Phillips]. Phillips (Traditional American Fiddle Tunes), vol. 1, 1994; pg. 256.

                       

WHITESIDE’S HORNPIPE. Irish, Hornpipe. G Major. Standard tuning. AABB. O’Neill (1922) says of his source: “James Whiteside, the ‘Bard of Bray’, County Wicklow, was a genius—scholar, poet, musician, composer. Born in County Monaghan in 1844, he retired after 40 years service as a schoolteacher at Bray. His playing of the violin won two first honors at two Feiseanna. An interesting sketch of his life appears on pages 384-7, {O’Neill’s} Irish Minstrels and Musicians.” Source for notated version: James Whiteside [O’Neill]. O’Neill (Waifs and Strays of Gaelic Melody), 1922; No. 320.

